X:115
T:Rakes of Kildare #1
C:Joe Buchanan's Scottish Tome - Page 228.1
I:228 1
Z:Carl Allison
R:Jig
L:1/8
M:6/8
K:C
E | EAA A^GA | Bcd e2 ^f | g^fg ege | dBG G2 A | 
[2"@190,39second part second time"EAA A^GA | Bcd e2 ^f | g^fe dBG | A2> A2 :| 
a | aea aea | aea b2 a | g^fg ege | dBG G2 a | 
aea aea | aea b2 a | g^fe dBG | A2 A2 :| 

